!!!!SEGMENT: pl-sa--168-a-iv-18--005_luna-georgius--missa-benedictus.krn
!!!cenid: 17xx:518
!!!COM: Luna, Georgius
!!!COM-rismid: pe41010079
!!!CDT:
!!!CNT:
!!!OPR: Missa
!!!OTL: Benedictus
!!!OMV: 005
!!!PDT:
!!!AGN: Sacred; Mass
!!!SMS-siglum: PL-SA
!!!SMS-shelfmark: 168/A IV 18
!!!SMS-shelfwork: 001-005 M
!!!SMS-variant:
!!!SMS-altvar:
!!!NIFC-rismid: 1001070167
!!!URL-scan: http://bc.bdsandomierz.pl/dlibra/publication/1554/edition/1522/content
!!!ONB-nifc: UWAGA: części Mszy: Kirie, Gloria, Credo, Sanctus, Benedictus, Agnus Dei
**kern	**dynam	**kern	**dynam	**kern	**dynam	**kern	**text	**kern	**text	**kern	**text
*part6	*part6	*part5	*part5	*part4	*part4	*part3	*part3	*part2	*part2	*part1	*part1
*staff6	*	*staff5	*	*staff4	*	*staff3	*staff3	*staff2	*staff2	*staff1	*staff1
*group3	*	*group2	*	*group2	*	*group1	*	*group1	*	*group1	*
*I"[Fundamento]	*	*I"Violino Secundo	*	*I"Violino Primo	*	*I"Baſso	*	*I"Tenore	*	*I"Canto	*
*I'bc	*	*I'vl II	*	*I'vl I	*	*I'B	*	*I'T	*	*I'C	*
*clefF4	*	*clefG2	*	*clefG2	*	*clefF4	*	*clefC4	*	*clefC1	*
*k[f#]	*	*k[f#]	*	*k[f#]	*	*k[f#]	*	*k[f#]	*	*k[f#]	*
*e:	*	*e:	*	*e:	*	*e:	*	*e:	*	*e:	*
*M3/4	*	*M3/4	*	*M3/4	*	*M3/4	*	*M3/4	*	*M3/4	*
=1	=1	=1	=1	=1	=1	=1	=1	=1	=1	=1	=1
!LO:TX:a:t=Solo	!	!	!	!LO:TX:b:t=Benedictus	!	!	!	!	!	!	!
!LO:TX:a:B:t=Adagio	!	!LO:TX:a:B:t=adagio	!	!LO:TX:a:B:t=adagio	!	!LO:TX:a:B:t=Tacet	!	!LO:TX:a:B:t=adagio	!	!LO:TX:a:t=P:problem:partia nie zawiera informacji o Benedictus	!
!LO:TX:b:t=Benedictus	!	!LO:TX:b:t=Benedictus	!	!	!	!	!	!LO:N:vis=00	!	!	!
4E\	.	8r	.	8r	.	2.ryy	.	0.r	.	2.ryy	.
.	.	8g/L	.	8b\L	.	.	.	.	.	.	.
4E\	.	8a/	.	8cc\	.	.	.	.	.	.	.
.	.	8g/	.	8b\	.	.	.	.	.	.	.
4E\	.	8b/	.	8ee\	.	.	.	.	.	.	.
.	.	8ee/J	.	8gg\J	.	.	.	.	.	.	.
=2	=2	=2	=2	=2	=2	=2	=2	=2	=2	=2	=2
8B\L	.	8ee\L	.	8gg\L	.	2.ryy	.	.	.	2.ryy	.
8B\	.	8dd#X\J	.	8ff#\J	.	.	.	.	.	.	.
(8A#X\	.	4dd#\	.	4ff#\	.	.	.	.	.	.	.
8B\)	.	.	.	.	.	.	.	.	.	.	.
!LO:TX:a:t=P:problem:niejednoznaczny zapis artykulacji [przyjęto staccatissimo]:global	!	!	!	!	!	!	!	!	!	!	!
8F#`\	.	4r	.	4r	.	.	.	.	.	.	.
8D#X`\J	.	.	.	.	.	.	.	.	.	.	.
=3	=3	=3	=3	=3	=3	=3	=3	=3	=3	=3	=3
4BB/	.	8r	.	8r	.	2.ryy	.	.	.	2.ryy	.
!	!	!	!	!LO:TX:a:t=P:problem:belka ósemek pogrubiona	!	!	!	!	!	!	!
.	.	8dd#X\L	.	8ff#\L	.	.	.	.	.	.	.
4BB/	.	8ee\	.	8gg\	.	.	.	.	.	.	.
!	!	!LO:TX:a:t=P:problem:niejednoznaczny zapis łuku	!	!	!	!	!	!	!	!	!
.	.	[8dd#\	.	8ff#\	.	.	.	.	.	.	.
4BB/	.	8dd#\]	.	8ff#\	.	.	.	.	.	.	.
.	.	8ff#\J	.	8aa\J	.	.	.	.	.	.	.
=4	=4	=4	=4	=4	=4	=4	=4	=4	=4	=4	=4
4E\	.	8ff#\L	.	8aa\L	.	2.ryy	.	.	.	2.ryy	.
.	.	8ee\	.	8gg\	.	.	.	.	.	.	.
4E\	.	8ee\	.	8gg\	.	.	.	.	.	.	.
.	.	8b\	.	8gg\	.	.	.	.	.	.	.
8A\L	.	8a\	.	8ff#\	.	.	.	.	.	.	.
8A#X\J	.	8g\J	.	8ee\J	.	.	.	.	.	.	.
=5	=5	=5	=5	=5	=5	=5	=5	=5	=5	=5	=5
!	!	!	!	!	!	!	!	!LO:N:vis=00	!	!	!
4B\	.	4g/	.	4ee\	.	2.ryy	.	0.r	.	2.ryy	.
!	!	!LO:TX:a:t=P:problem:mixed beam	!	!	!	!	!	!	!	!	!
4BB/	.	8f#/L	.	8dd#X\L	.	.	.	.	.	.	.
.	.	8dd#X\	.	8ff#\	.	.	.	.	.	.	.
4r	.	8ee\	.	8gg\	.	.	.	.	.	.	.
.	.	8ff#\J	.	8aa\J	.	.	.	.	.	.	.
=6	=6	=6	=6	=6	=6	=6	=6	=6	=6	=6	=6
8r	.	8ee\L	.	8gg\L	.	2.ryy	.	.	.	2.ryy	.
8B\	.	8dd#X\J	.	8ff#\J	.	.	.	.	.	.	.
4BB/	.	8r	.	8r	.	.	.	.	.	.	.
!	!	!LO:TX:a:t=P:problem:niejednoznaczny zapis łuku	!	!LO:TX:a:t=P:problem:niejednoznaczny zapis łuku	!	!	!	!	!	!	!
.	.	(8dd#\L	.	(8ff#\L	.	.	.	.	.	.	.
4r	.	8ee\	.	8gg\	.	.	.	.	.	.	.
.	.	8ff#\J)	.	8aa\J)	.	.	.	.	.	.	.
=7	=7	=7	=7	=7	=7	=7	=7	=7	=7	=7	=7
8r	.	8ee\L	.	8gg\L	.	2.ryy	.	.	.	2.ryy	.
8B\	.	8dd#X\J	.	8ff#\J	.	.	.	.	.	.	.
4BB/	.	8r	.	8r	.	.	.	.	.	.	.
!	!	!	!	!LO:TX:a:t=P:problem:niejednoznaczny zapis łuku	!	!	!	!	!	!	!
.	.	8dd#\L	.	(8ff#\L	.	.	.	.	.	.	.
!	!	!LO:TX:a:t=P:problem:niejednoznaczny zapis łuku	!	!	!	!	!	!	!	!	!
8r	.	(8ee\	.	8gg\	.	.	.	.	.	.	.
8B\	.	8ff#\J)	.	8aa\J)	.	.	.	.	.	.	.
=8	=8	=8	=8	=8	=8	=8	=8	=8	=8	=8	=8
!	!	!	!	!LO:TX:a:t=P:problem:klamra łukowa z numerem:global	!	!	!	!	!	!	!
8E\L	.	8ee\L	.	24gg\LL	.	2.ryy	.	.	.	2.ryy	.
.	.	.	.	24ff#\	.	.	.	.	.	.	.
.	.	.	.	24ee\JJ	.	.	.	.	.	.	.
!	!	!	!	!LO:TX:a:t=P:problem:klamra łukowa z numerem	!	!	!	!	!	!	!
8A\J	.	8ff#\J	.	24ccc\LL	.	.	.	.	.	.	.
.	.	.	.	24bb\	.	.	.	.	.	.	.
.	.	.	.	24aa\JJ	.	.	.	.	.	.	.
4B\	.	4ee\	.	4gg\	.	.	.	.	.	.	.
4BB/	.	4dd#X\	.	4ff#\	.	.	.	.	.	.	.
!	!	!LO:LB:g=original	!	!	!	!	!	!	!	!	!
=9	=9	=91	=9	=9	=9	=9	=9	=9	=9	=9	=9
!	!	!LO:SIC:s=8qdd#	!	!LO:TX:a:t=P:problem:p = pia:global	!LO:DY:a	!	!	!LO:N:vis=00	!	!	!
.	.	8qqdd/	.	8qqff#/	p	.	.	.	.	.	.
8E\L	.	4ee\	.	4ee\	.	2.ryy	.	0.r	.	2.ryy	.
8BB\J	.	.	.	.	.	.	.	.	.	.	.
4EE/	.	8r	.	8r	.	.	.	.	.	.	.
.	.	8dd#X\L	.	8ff#\L	.	.	.	.	.	.	.
!	!	!LO:TX:a:t=P:problem:niejednoznaczny zapis łuku	!	!	!	!	!	!	!	!	!
4r	.	(8ee\	.	8gg\	.	.	.	.	.	.	.
.	.	8ff#\J)	.	8aa\J	.	.	.	.	.	.	.
!	!	!	!	!LO:LB:g=original	!	!	!	!	!	!	!
=10	=10	=10	=10	=10	=10	=10	=10	=10	=10	=10	=10
!LO:TX:a:t=P:problem:p = pia:global	!LO:DY:a	!	!	!	!	!	!	!	!	!	!
8r	p	8ee\L	.	8gg\L	.	2.ryy	.	.	.	2.ryy	.
8B\	.	8dd#X\J	.	8ff#\J	.	.	.	.	.	.	.
4BB/	.	8r	.	8r	.	.	.	.	.	.	.
!	!	!LO:SIC:s=8dd#	!	!	!	!	!	!	!	!	!
.	.	8cc#X\L	.	8ff#\L	.	.	.	.	.	.	.
!	!	!LO:SIC:s=8ee	!	!	!	!	!	!	!	!	!
!	!	!LO:TX:a:t=P:problem:niejednoznaczny zapis łuku	!	!	!	!	!	!	!	!	!
4r	.	(8dd#\	.	8gg\	.	.	.	.	.	.	.
!	!	!LO:SIC:s=8ff#	!	!	!	!	!	!	!	!	!
.	.	8ee\J)	.	8aa\J	.	.	.	.	.	.	.
!LO:LB:g=original	!	!	!	!	!	!	!	!	!	!	!
=11	=11	=11	=11	=11	=11	=11	=11	=11	=11	=11	=11
.	.	.	.	8qqaa/	.	.	.	.	.	.	.
8r	.	8ee\L	.	8gg\L	.	2.ryy	.	.	.	2.ryy	.
8B\	.	8dd#X\J	.	8ff#\J	.	.	.	.	.	.	.
4BB/	.	8r	.	8r	.	.	.	.	.	.	.
.	.	8dd#\L	.	8ff#\L	.	.	.	.	.	.	.
!	!	!LO:TX:a:t=P:problem:niejednoznaczny zapis łuku	!	!LO:TX:a:t=P:problem:niejednoznaczny zapis łuku	!	!	!	!	!	!	!
8r	.	(8ee\	.	(8gg\	.	.	.	.	.	.	.
8B\	.	8ff#\J)	.	8aa\J)	.	.	.	.	.	.	.
=12	=12	=12	=12	=12	=12	=12	=12	=12	=12	=12	=12
!	!	!	!	!LO:TX:a:t=P:problem:klamra łukowa z numerem	!	!	!	!	!	!	!
8E\L	.	8ee\L	.	24gg\LL	.	2.ryy	.	.	.	2.ryy	.
.	.	.	.	24ff#\	.	.	.	.	.	.	.
.	.	.	.	24ee\JJ	.	.	.	.	.	.	.
!	!	!	!	!LO:TX:a:t=P:problem:klamra łukowa z numerem	!	!	!	!	!	!	!
8A\J	.	8ff#\J	.	24ccc\LL	.	.	.	.	.	.	.
.	.	.	.	24bb\	.	.	.	.	.	.	.
.	.	.	.	24aa\JJ	.	.	.	.	.	.	.
4B\	.	4ee\	.	4gg\	.	.	.	.	.	.	.
4BB/	.	4dd#X\	.	4ff#\	.	.	.	.	.	.	.
=13	=13	=13	=13	=13	=13	=13	=13	=13	=13	=13	=13
4E;;\	.	4ee\	.	4ee\	.	2.ryy	.	2.r	.	2.ryy	.
4r	.	4e;/	.	4e;;/	.	.	.	.	.	.	.
4r	.	4r	.	4r	.	.	.	.	.	.	.
=14	=14	=14	=14	=14	=14	=14	=14	=14	=14	=14	=14
!	!LO:DY:a	!	!	!	!	!	!	!	!	!	!
4E\	p	8r	.	8r	.	2.ryy	.	4B\	Be-	2.ryy	.
!	!	!	!	!	!LO:DY:a	!	!	!	!	!	!
.	.	8g/L	.	8b\L	p	.	.	.	.	.	.
4E\	.	8a/	.	8cc\	.	.	.	(8c\L	.	.	.
.	.	8g/	.	8b\	.	.	.	8B\J)	.	.	.
4E\	.	8b/	.	8ee\	.	.	.	(8e\L	-ne-	.	.
.	.	8ee/J	.	8gg\J	.	.	.	8g\J)	.	.	.
=15	=15	=15	=15	=15	=15	=15	=15	=15	=15	=15	=15
8B\L	.	8ee\L	.	8gg\L	.	2.ryy	.	(8g\L	-dic-	2.ryy	.
8B\	.	8dd#X\J	.	8ff#\J	.	.	.	8f#\J)	.	.	.
(8A#X\	.	4dd#\	.	4ff#\	.	.	.	4f#\	-tuſ	.	.
8B\)	.	.	.	.	.	.	.	.	.	.	.
8F#`\	.	4r	.	4r	.	.	.	4r	.	.	.
8D#X`\J	.	.	.	.	.	.	.	.	.	.	.
=16	=16	=16	=16	=16	=16	=16	=16	=16	=16	=16	=16
4BB/	.	8r	.	8r	.	2.ryy	.	4f#\	qui	2.ryy	.
.	.	8dd#X\L	.	8ff#\L	.	.	.	.	.	.	.
!	!	!	!	!LO:TX:a:t=P:problem:niejednoznaczny zapis łuku	!	!	!	!	!	!	!
4BB/	.	8ee\	.	(8gg\	.	.	.	(8g\L	ve-	.	.
.	.	8dd#\	.	8ff#\	.	.	.	8f#\J)	.	.	.
!	!	!	!	!LO:SIC:s=8ff#	!	!	!	!	!	!	!
4BB/	.	8dd#\	.	8gg\)	.	.	.	8f#\	-nit	.	.
.	.	8ff#\J	.	8aa\J	.	.	.	8a\	in	.	.
=17	=17	=17	=17	=17	=17	=17	=17	=17	=17	=17	=17
4E\	.	8ff#\L	.	8aa\L	.	2.ryy	.	8a\	no-	2.ryy	.
.	.	8ee\	.	8gg\J	.	.	.	8g\	-mi-	.	.
4E\	.	8ee\	.	8gg\L	.	.	.	8g\	-ne	.	.
.	.	8b\	.	8gg\	.	.	.	(8g\L	do-	.	.
!	!	!	!	!LO:TX:a:t=P:problem:niejednoznaczny zapis łuku	!	!	!	!	!	!	!
8A\L	.	8a\	.	(8ff#\	.	.	.	8f#\	.	.	.
8A#X\J	.	8g\J	.	8ee\J)	.	.	.	8e\J)	.	.	.
!	!	!LO:LB:g=original	!	!	!	!	!	!	!	!	!
=18	=18	=18	=18	=18	=18	=18	=18	=18	=18	=18	=18
4B\	.	4g/	.	4ee\	.	2.ryy	.	(8.e\	.	2.ryy	.
.	.	.	.	.	.	.	.	16e\)	-mi-	.	.
.	.	.	.	.	.	.	.	8qqe/	.	.	.
4BB/	.	4f#/	.	4dd#X\	.	.	.	4d#X\	-ni	.	.
8B\L	.	4r	.	4r	.	.	.	4r	.	.	.
8An\J	.	.	.	.	.	.	.	.	.	.	.
!	!	!	!	!LO:LB:g=original	!	!	!	!	!	!	!
=19	=19	=19	=19	=19	=19	=19	=19	=19	=19	=19	=19
8G\L	.	8b\L	.	8dd\L	.	2.ryy	.	(4.dn\	Be-	2.ryy	.
8G\	.	8b\	.	8dd\	.	.	.	.	.	.	.
8G\	.	8b\	.	8dd\	.	.	.	.	.	.	.
8G\	.	8b\	.	8dd\	.	.	.	16c\LL	.	.	.
.	.	.	.	.	.	.	.	16B\JJ)	.	.	.
8G\	.	8b\	.	8dd\	.	.	.	8d\L	-ne-	.	.
8G\J	.	8b\J	.	8dd\J	.	.	.	(16c\L	.	.	.
.	.	.	.	.	.	.	.	16B\JJ)	.	.	.
=20	=20	=20	=20	=20	=20	=20	=20	=20	=20	=20	=20
!	!	!	!	!	!	!	!	!LO:LB:g=original	!	!	!
8G\L	.	8cc\L	.	8ee\L	.	2.ryy	.	(4.e\	-dic-	2.ryy	.
8G\	.	8cc\	.	8ee\	.	.	.	.	.	.	.
8G\	.	8cc\	.	8ee\	.	.	.	.	.	.	.
8G\	.	8cc\	.	8ee\	.	.	.	16d\LL	.	.	.
.	.	.	.	.	.	.	.	16c\JJ)	.	.	.
8G\	.	8cc\	.	8ee\	.	.	.	8e\	-tuſ	.	.
8G\J	.	8cc\J	.	8ee\J	.	.	.	(16d\LL	qui	.	.
.	.	.	.	.	.	.	.	16c\JJ)	.	.	.
!LO:LB:g=original	!	!	!	!	!	!	!	!	!	!	!
=21	=21	=21	=21	=21	=21	=21	=21	=21	=21	=21	=21
8G\L	.	8b/L	.	8dd\L	.	2.ryy	.	(8g\L	ve-	2.ryy	.
8G\	.	8a/	.	8dd\	.	.	.	16f#\L	.	.	.
.	.	.	.	.	.	.	.	16e\JJ)	.	.	.
*	*	*	*	*	*	*	*	*2\right	*	*	*
.	.	.	.	8qqdd/	.	.	.	8qqd/	.	.	.
8d\	.	8a/	.	8cc\	.	.	.	2c\	.	.	.
8d\	.	8a/	.	8cc\	.	.	.	.	.	.	.
8D\	.	8a/	.	8cc\	.	.	.	.	.	.	.
8D\J	.	8a/J	.	8cc\J	.	.	.	.	.	.	.
=22	=22	=22	=22	=22	=22	=22	=22	=22	=22	=22	=22
8G\L	.	8g/L	.	8b\L	.	2.ryy	.	4B\	-nit	2.ryy	.
8G\	.	8d/	.	8b\	.	.	.	.	.	.	.
8G\	.	8d/	.	8b\	.	.	.	8r	.	.	.
8G\	.	8d/	.	8b\	.	.	.	8B\	qui	.	.
8G\	.	8d/	.	8b\	.	.	.	4B\	ve-	.	.
8G\J	.	8d/J	.	8b\J	.	.	.	.	.	.	.
=23	=23	=23	=23	=23	=23	=23	=23	=23	=23	=23	=23
.	.	.	.	.	.	.	.	8qqB/	.	.	.
8D\L	.	8f#/L	.	8a\L	.	2.ryy	.	4A\	-nit	2.ryy	.
8D\	.	8a/	.	8cc\	.	.	.	.	.	.	.
8D\	.	8a/	.	8cc\	.	.	.	8r	.	.	.
8D\	.	8a/	.	8cc\	.	.	.	8c\	qui	.	.
8D\	.	8a/	.	8cc\	.	.	.	4c\	ve-	.	.
8D\J	.	8a/J	.	8cc\J	.	.	.	.	.	.	.
=24	=24	=24	=24	=24	=24	=24	=24	=24	=24	=24	=24
.	.	.	.	.	.	.	.	8qqc/	.	.	.
8GG/L	.	8g/L	.	8b\L	.	2.ryy	.	4B\	-nit	2.ryy	.
8GG/	.	8b/	.	8gg\	.	.	.	.	.	.	.
8GG/	.	8b/	.	8gg\	.	.	.	8r	.	.	.
8GG/	.	8b/	.	8gg\	.	.	.	8g\	qui	.	.
8GG/	.	8b/	.	8gg\	.	.	.	4g\	ve-	.	.
8GG/J	.	8b/J	.	8gg\J	.	.	.	.	.	.	.
=25	=25	=25	=25	=25	=25	=25	=25	=25	=25	=25	=25
.	.	.	.	.	.	.	.	8qqg/	.	.	.
8D\L	.	8a/L	.	8ff#\L	.	2.ryy	.	4f#\	-nit	2.ryy	.
8D\	.	8a/	.	8cc\	.	.	.	.	.	.	.
8D\	.	8a/	.	8cc\	.	.	.	8r	.	.	.
8D\	.	8a/	.	8cc\	.	.	.	8c\	qui	.	.
8D\	.	8a/	.	8cc\	.	.	.	4c\	ve-	.	.
8D\J	.	8a/J	.	8cc\J	.	.	.	.	.	.	.
=26	=26	=26	=26	=26	=26	=26	=26	=26	=26	=26	=26
4GG/	.	8g/L	.	8b\L	.	2.ryy	.	8B\	-nit	2.ryy	.
.	.	8b/	.	8dd\	.	.	.	8d\	qui	.	.
!	!	!	!	!	!	!	!	!LO:SIC:s=8ee	!	!	!
!	!	!	!	!	!	!	!	!LO:TX:a:t=P:problem:niejednoznaczny zapis łuku	!	!	!
4r	.	8cc/	.	8ee\	.	.	.	(8f#\L	ve-	.	.
.	.	8a/	.	8ff#\	.	.	.	8f#\J	.	.	.
4r	.	8b/	.	8gg\	.	.	.	8g\)	-nit	.	.
.	.	8cc/J	.	8ee\J	.	.	.	8e\	in	.	.
!	!	!	!	!	!	!	!	!LO:LB:g=original	!	!	!
=27	=27	=27	=27	=27	=27	=27	=27	=27	=27	=27	=27
8GG/L	.	8b/L	.	8dd\L	.	2.ryy	.	8d\	no-	2.ryy	.
8C/J	.	16cc/L	.	16ee\L	.	.	.	16e\	-mi-	.	.
.	.	16a/JJ	.	16cc\JJ	.	.	.	16c\	-ni	.	.
4D/	.	4g/	.	4b/	.	.	.	(4B\	do-	.	.
4D/	.	4f#/	.	4a/	.	.	.	8.A\	.	.	.
.	.	.	.	.	.	.	.	16A\)	-mi-	.	.
!	!	!LO:LB:g=original	!	!	!	!	!	!	!	!	!
=28	=28	=28	=28	=28	=28	=28	=28	=28	=28	=28	=28
8G\L	.	4g/	.	4g/	.	2.ryy	.	4G/	-ni	2.ryy	.
8D\J	.	.	.	.	.	.	.	.	.	.	.
4GG/	.	8r	.	8r	.	.	.	4r	.	.	.
!	!	!	!	!LO:TX:a:t=P:problem:niejednoznaczny zapis łuku	!	!	!	!	!	!	!
!	!	!LO:TX:a:t=P:problem:f = for:global	!LO:DY:a	!LO:TX:a:t=P:problem:f = for:global	!LO:DY:a	!	!	!	!	!	!
.	.	8f#/L	f	(8a/L	f	.	.	.	.	.	.
4r	.	8g/	.	8b/	.	.	.	4r	.	.	.
.	.	8a/J	.	8cc/J)	.	.	.	.	.	.	.
!	!	!	!	!LO:LB:g=original	!	!	!	!	!	!	!
=29	=29	=29	=29	=29	=29	=29	=29	=29	=29	=29	=29
!LO:TX:a:t=P:problem:f = for:global	!LO:DY:a	!	!	!	!	!	!	!LO:N:vis=00	!	!	!
8r	f	8g/L	.	8b/L	.	2.ryy	.	0.r	.	2.ryy	.
8d\	.	8f#/J	.	8a/J	.	.	.	.	.	.	.
4D\	.	8r	.	8r	.	.	.	.	.	.	.
!	!	!LO:TX:a:t=P:problem:p = pia:global	!LO:DY:a	!LO:TX:a:t=P:problem:niejednoznaczny zapis łuku	!LO:DY:a	!	!	!	!	!	!
.	.	8f#/L	p	(8a/L	p	.	.	.	.	.	.
4r	.	8g/	.	8b/	.	.	.	.	.	.	.
.	.	8a/J	.	8cc/J)	.	.	.	.	.	.	.
!LO:LB:g=original	!	!	!	!	!	!	!	!	!	!	!
=30	=30	=30	=30	=30	=30	=30	=30	=30	=30	=30	=30
!	!	!	!	!	!LO:DY:a	!	!	!	!	!	!
8r	.	8g/L	.	8b/L	f	2.ryy	.	.	.	2.ryy	.
8d\	.	8f#/J	.	8a/J	.	.	.	.	.	.	.
4D\	.	8r	.	8r	.	.	.	.	.	.	.
!	!	!	!LO:DY:a	!LO:TX:a:t=P:problem:niejednoznaczny zapis łuku	!	!	!	!	!	!	!
.	.	8f#/L	f	8a/L	.	.	.	.	.	.	.
!	!	!	!	!LO:TX:a:t=P:problem:niejednoznaczny zapis łuku	!	!	!	!	!	!	!
8r	.	8g/	.	(8b/	.	.	.	.	.	.	.
8D\	.	8a/J	.	8cc/J)	.	.	.	.	.	.	.
=31	=31	=31	=31	=31	=31	=31	=31	=31	=31	=31	=31
!	!	!	!	!LO:TX:a:t=P:problem:fermata nad i pod nutą	!	!	!	!	!	!	!
!	!	!	!	!LO:TUP:b	!	!	!	!	!	!	!
8G\L	.	8g/L	.	24b/LL	.	2.ryy	.	.	.	2.ryy	.
.	.	.	.	24a/	.	.	.	.	.	.	.
.	.	.	.	24g/JJ	.	.	.	.	.	.	.
!	!	!	!	!LO:TX:a:t=P:problem:fermata nad i pod nutą	!	!	!	!	!	!	!
8C\J	.	8a/J	.	24ee\LL	.	.	.	.	.	.	.
.	.	.	.	24dd\	.	.	.	.	.	.	.
.	.	.	.	24cc\JJ	.	.	.	.	.	.	.
4D\	.	4g/	.	4b/	.	.	.	.	.	.	.
4DD/	.	4f#/	.	4a/	.	.	.	.	.	.	.
=32	=32	=32	=32	=32	=32	=32	=32	=32	=32	=32	=32
!	!	!	!LO:DY:a	!	!	!	!	!	!	!	!
4GG/	.	4g/	p	4g/	.	2.ryy	.	.	.	2.ryy	.
4r	.	4G/	.	4G/	.	.	.	.	.	.	.
4r	.	4r	.	4r	.	.	.	.	.	.	.
=33	=33	=33	=33	=33	=33	=33	=33	=33	=33	=33	=33
!	!LO:DY:a	!	!	!	!LO:DY:a	!	!	!	!	!	!
4G\	p	4b\	.	4dd\	p	2.ryy	.	(4d\	Be-	2.ryy	.
4G\	.	8cc\L	.	(8ee\L	.	.	.	8e\L	.	.	.
.	.	8b\J	.	8dd\)	.	.	.	8d\J)	.	.	.
4G\	.	4b\	.	(8gg\	.	.	.	(8g\L	-ne-	.	.
.	.	.	.	8dd\J)	.	.	.	8d\J)	.	.	.
=34	=34	=34	=34	=34	=34	=34	=34	=34	=34	=34	=34
!	!	!LO:TX:a:t=bisik	!	!	!	!	!	!	!	!	!
.	.	8qqb/	.	8qqdd/	.	.	.	8qqd/	.	.	.
4D\	.	4a/	.	4cc\	.	2.ryy	.	4c\	-dic-	2.ryy	.
4G\	.	4g/	.	4b\	.	.	.	4B\	-tuſ	.	.
4GG/	.	4r	.	4dd\	.	.	.	(8g\L	qui	.	.
.	.	.	.	.	.	.	.	8d\J)	.	.	.
=35	=35	=35	=35	=35	=35	=35	=35	=35	=35	=35	=35
!	!	!LO:TX:a:t=P:problem:repetycja t. 34	!	!	!	!	!	!	!	!	!
.	.	8qqb/yy	.	8qqdd/	.	.	.	8qqd/	.	.	.
4D\	.	4a/yy	.	4cc\	.	2.ryy	.	4c\	ve-	2.ryy	.
4G\	.	4g/yy	.	4b\	.	.	.	4B\	-nit	.	.
4GG/	.	4ryy	.	4r	.	.	.	4r	.	.	.
=36	=36	=36	=36	=36	=36	=36	=36	=36	=36	=36	=36
4AA/	.	4e/	.	4cc#X\	.	2.ryy	.	4c#X\	qui	2.ryy	.
4A\	.	4.e/	.	4.cc#\	.	.	.	(4.c#\	ve-	.	.
4G\	.	.	.	.	.	.	.	.	.	.	.
.	.	(16g/LL	.	(16ee\LL	.	.	.	16e\LL	.	.	.
.	.	16e/JJ)	.	16cc#\JJ)	.	.	.	16c#\JJ)	.	.	.
=37	=37	=37	=37	=37	=37	=37	=37	=37	=37	=37	=37
*	*	*	*	*2\right	*	*	*	*	*	*	*
!	!	!	!	!LO:SIC:s=8qcc#	!	!	!	!	!	!	!
!	!	!	!	!	!	!	!	!LO:SIC:s=8qc#	!	!	!
.	.	8qqe/	.	8qqcc/	.	.	.	8qqc/	.	.	.
8F#\L	.	2.f#/	.	2.dd\	.	2.ryy	.	2.d\	-nit	2.ryy	.
8E\J	.	.	.	.	.	.	.	.	.	.	.
4F#\	.	.	.	.	.	.	.	.	.	.	.
4D\	.	.	.	.	.	.	.	.	.	.	.
!	!	!	!	!	!	!	!	!LO:LB:g=original	!	!	!
=38	=38	=38	=38	=38	=38	=38	=38	=38	=38	=38	=38
4BB/	.	4f#/	.	4dd#X\	.	2.ryy	.	4d#X\	qui	2.ryy	.
4B\	.	4.f#/	.	4.dd#\	.	.	.	(4.d#\	ve-	.	.
4A\	.	.	.	.	.	.	.	.	.	.	.
.	.	(16a/LL	.	16ff#\LL	.	.	.	16f#\LL	.	.	.
.	.	16f#/JJ)	.	16dd#\JJ	.	.	.	16d#\JJ)	.	.	.
!	!	!	!	!LO:LB:g=original	!	!	!	!	!	!	!
=39	=39	=39	=39	=39	=39	=39	=39	=39	=39	=39	=39
8G\L	.	8g/L	.	8ee\L	.	2.ryy	.	8e\	-nit	2.ryy	.
8E\J	.	8b/J	.	8gg\J	.	.	.	8g\	in	.	.
4A\	.	4b/	.	4gg\	.	.	.	4g\	no-	.	.
4A#X\	.	(8a/L	.	8ff#\L	.	.	.	8f#\	-mi-	.	.
.	.	8g/J)	.	8ee\J	.	.	.	8e\	-ne	.	.
=40	=40	=40	=40	=40	=40	=40	=40	=40	=40	=40	=40
!LO:TX:a:t=P:problem:mixed beam	!	!	!	!	!	!	!	!	!	!	!
8B\L	.	4g/	.	4ee\	.	2.ryy	.	8e\	Do-	2.ryy	.
8BB/	.	.	.	.	.	.	.	8e\	-mi-	.	.
8B\	.	4f#/	.	4dd#X\	.	.	.	4d#X\	-ni	.	.
8An\	.	.	.	.	.	.	.	.	.	.	.
8G\	.	4r	.	4r	.	.	.	4r	.	.	.
8F#\J	.	.	.	.	.	.	.	.	.	.	.
!LO:LB:g=original	!	!LO:LB:g=original	!	!	!	!	!	!	!	!	!
=41	=41	=41	=41	=41	=41	=41	=41	=41	=41	=41	=41
4E\	.	8r	.	8r	.	2.ryy	.	4B\	Be-	2.ryy	.
.	.	8g/L	.	8b\L	.	.	.	.	.	.	.
4E\	.	8a/	.	8cc\	.	.	.	(8c\L	.	.	.
.	.	8g/	.	8b\	.	.	.	8B\J)	.	.	.
4E\	.	8b/	.	8ee\	.	.	.	(8e\L	-ne-	.	.
.	.	8ee/J	.	8gg\J	.	.	.	8g\J)	.	.	.
=42	=42	=42	=42	=42	=42	=42	=42	=42	=42	=42	=42
8B`\L	.	8ee\L	.	8gg\L	.	2.ryy	.	(8g\L	-dic-	2.ryy	.
8B`\	.	8dd#X\J	.	8ff#\J	.	.	.	8f#\J)	.	.	.
(8A#X\	.	4dd#\	.	4ff#\	.	.	.	4f#\	-tuſ	.	.
8B\)	.	.	.	.	.	.	.	.	.	.	.
8F#\	.	4r	.	4r	.	.	.	4r	.	.	.
8D#X\J	.	.	.	.	.	.	.	.	.	.	.
=43	=43	=43	=43	=43	=43	=43	=43	=43	=43	=43	=43
4BB/	.	8r	.	8r	.	2.ryy	.	4f#\	qui	2.ryy	.
.	.	8dd#X\L	.	8ff#\L	.	.	.	.	.	.	.
4BB/	.	8ee\	.	8gg\	.	.	.	(8g\L	ve-	.	.
.	.	[8dd#\	.	[8ff#\	.	.	.	8f#\J)	.	.	.
4BB/	.	8dd#\]	.	8ff#\]	.	.	.	8f#\	-nit	.	.
.	.	8ff#\J	.	8aa\J	.	.	.	8a\	in	.	.
!	!	!	!	!	!	!	!	!LO:LB:g=original	!	!	!
=44	=44	=44	=44	=44	=44	=44	=44	=44	=44	=44	=44
4E\	.	8ff#\L	.	8aa\L	.	2.ryy	.	8a\	no-	2.ryy	.
!	!	!	!	!	!	!	!	!LO:N:vis=4.	!	!	!
.	.	8ee\	.	8gg\J	.	.	.	8g\	-mi-	.	.
4E\	.	8ee\	.	8gg\L	.	.	.	8g\	-ne	.	.
!	!	!	!	!LO:TX:a:t=P:problem:niejednoznaczny zapis łuku	!	!	!	!	!	!	!
.	.	8b\	.	(8gg\	.	.	.	(8g\L	Do-	.	.
8A\L	.	8a\	.	8ff#\	.	.	.	8f#\	.	.	.
8A#X\J	.	8g\J	.	8ee\J)	.	.	.	8e\J)	.	.	.
=45	=45	=45	=45	=45	=45	=45	=45	=45	=45	=45	=45
4B\	.	4g/	.	4ee\	.	2.ryy	.	(8.e\	.	2.ryy	.
.	.	.	.	.	.	.	.	16e\)	-mi-	.	.
!	!	!LO:TX:a:t=P:problem:mixed beam	!	!	!	!	!	!	!	!	!
.	.	.	.	.	.	.	.	8qqe/	.	.	.
4BB/	.	8f#X/L	.	8dd#X\L	.	.	.	4d#X\	-ni	.	.
!	!	!	!	!LO:TX:a:t=P:problem:niejednoznaczny zapis łuku	!	!	!	!	!	!	!
.	.	8dd#X\	.	(8ff#\	.	.	.	.	.	.	.
4r	.	8ee\	.	8gg\)	.	.	.	8r	.	.	.
.	.	8ff#\J	.	8aa\J	.	.	.	8f#\	qui	.	.
=46	=46	=46	=46	=46	=46	=46	=46	=46	=46	=46	=46
.	.	8qqff#/	.	.	.	.	.	.	.	.	.
8r	.	8ee\L	.	8gg\L	.	2.ryy	.	8g\	ve-	2.ryy	.
8B\	.	8dd#X\J	.	8ff#\J	.	.	.	8f#\	-nit	.	.
4BB/	.	8r	.	8r	.	.	.	4r	.	.	.
!	!	!LO:TX:a:t=P:problem:niejednoznaczny zapis łuku	!	!	!	!	!	!	!	!	!
.	.	(8dd#\L	.	8ff#\L	.	.	.	.	.	.	.
4r	.	8ee\	.	8gg\	.	.	.	8r	.	.	.
.	.	8ff#\J)	.	8aa\J	.	.	.	8f#\	qui	.	.
=47	=47	=47	=47	=47	=47	=47	=47	=47	=47	=47	=47
8r	.	8ee\L	.	8gg\L	.	2.ryy	.	8g\	ve-	2.ryy	.
8B\	.	8dd#X\J	.	8ff#\J	.	.	.	8f#\	-nit	.	.
4BB/	.	8r	.	8r	.	.	.	4r	.	.	.
.	.	8dd#\L	.	8ff#\L	.	.	.	.	.	.	.
8r	.	8ee\	.	8gg\	.	.	.	8r	.	.	.
8B\	.	8ff#\J	.	8aa\J	.	.	.	8e\	in	.	.
!	!	!	!	!LO:LB:g=original	!	!	!	!	!	!	!
=48	=48	=48	=48	=48	=48	=48	=48	=48	=48	=48	=48
8E\L	.	8b/L	.	16gg\LL	.	2.ryy	.	(16g\LL	no-	2.ryy	.
.	.	.	.	16ee\	.	.	.	16e\JJ)	.	.	.
8A\J	.	16a/L	.	16cc\	.	.	.	16c\	-mi-	.	.
.	.	16f#/JJ	.	16a\JJ	.	.	.	16B\	-ne	.	.
!	!	!	!	!	!	!	!	!LO:N:vis=4.	!	!	!
4B\	.	4e/	.	4g/	.	.	.	4G/	Do-	.	.
4BB/	.	4d#X/	.	4f#/	.	.	.	8.F#/	.	.	.
.	.	.	.	.	.	.	.	16F#/	-mi-	.	.
!	!	!	!	!	!	!	!	!LO:LB:g=original	!	!	!
=49	=49	=49	=49	=49	=49	=49	=49	=49	=49	=49	=49
8E\L	.	4e/	.	4e/	.	2.ryy	.	4E/	-ni	2.ryy	.
8BB\J	.	.	.	.	.	.	.	.	.	.	.
4E\	.	8r	.	8r	.	.	.	4r	.	.	.
!	!	!LO:TX:a:t=P:problem:niejednoznaczny zapis łuku	!	!	!	!	!	!	!	!	!
.	.	(8dd#X\L	.	(8ff#\L	.	.	.	.	.	.	.
4r	.	8ee\	.	8gg\	.	.	.	8r	.	.	.
.	.	8ff#\J)	.	8aa\J)	.	.	.	8f#\	qui	.	.
!	!	!LO:LB:g=original	!	!	!	!	!	!	!	!	!
=50	=50	=50	=50	=50	=50	=50	=50	=50	=50	=50	=50
.	.	.	.	8qqaa/	.	.	.	8qqf#/	.	.	.
8r	.	8ee\L	.	8gg\L	.	2.ryy	.	8g\	ve-	2.ryy	.
8B\	.	8dd#X\J	.	8ff#\J	.	.	.	8f#\	-nit	.	.
4BB/	.	8r	.	8r	.	.	.	4r	.	.	.
!	!	!LO:TX:a:t=P:problem:niejednoznaczny zapis łuku	!	!	!	!	!	!	!	!	!
.	.	(8dd#X\L	.	(8ff#\L	.	.	.	.	.	.	.
4r	.	8ee\	.	8gg\	.	.	.	8r	.	.	.
.	.	8ff#\J)	.	8aa\J)	.	.	.	8f#\	qui	.	.
!LO:LB:g=original	!	!	!	!	!	!	!	!	!	!	!
=51	=51	=51	=51	=51	=51	=51	=51	=51	=51	=51	=51
.	.	.	.	8qqaa/	.	.	.	.	.	.	.
8r	.	8ee\L	.	8gg\L	.	2.ryy	.	8g\	ve-	2.ryy	.
8B\	.	8dd#X\J	.	8ff#\J	.	.	.	8f#\	-nit	.	.
4BB/	.	8r	.	8r	.	.	.	4r	.	.	.
!	!	!LO:TX:a:t=P:problem:niejednoznaczny zapis łuku	!	!	!	!	!	!	!	!	!
.	.	(8dd#\L	.	(8ff#\L	.	.	.	.	.	.	.
8r	.	8ee\	.	8gg\	.	.	.	8r	.	.	.
8B\	.	8ff#\J)	.	8aa\J)	.	.	.	8f#\	in	.	.
=52	=52	=52	=52	=52	=52	=52	=52	=52	=52	=52	=52
8E\L	.	8b/L	.	16gg\LL	.	2.ryy	.	(16g\LL	no-	2.ryy	.
.	.	.	.	16ee\	.	.	.	16e\JJ)	.	.	.
8A\J	.	16a/L	.	16cc\	.	.	.	16c\	-mi-	.	.
.	.	16f#/JJ	.	16a\JJ	.	.	.	16B\	-ne	.	.
4B\	.	4e/	.	4g/	.	.	.	4G/	Do-	.	.
4BB/	.	4d#X/	.	4f#/	.	.	.	8.F#/	.	.	.
.	.	.	.	.	.	.	.	16F#/	-mi-	.	.
=53	=53	=53	=53	=53	=53	=53	=53	=53	=53	=53	=53
!	!LO:DY:a	!	!LO:DY:a	!	!LO:DY:a	!	!	!	!	!	!
8E\L	f	8e/L	f	8e/L	f	2.ryy	.	4E/	-ni	2.ryy	.
16E\L	.	16e/L	.	16e/L	.	.	.	.	.	.	.
16F#\JJ	.	16f#/JJ	.	16f#/JJ	.	.	.	.	.	.	.
8G\L	.	8g/L	.	8g/L	.	.	.	4r	.	.	.
8F#\	.	8f#/	.	8f#/	.	.	.	.	.	.	.
8G\	.	8g/	.	8g/	.	.	.	4r	.	.	.
8A#X\J	.	8a#X/J	.	8a#X/J	.	.	.	.	.	.	.
=54	=54	=54	=54	=54	=54	=54	=54	=54	=54	=54	=54
!	!	!	!	!LO:TX:a:t=P:problem:kreska taktowa podwójna	!	!	!	!	!	!	!
2B\	.	2b;/	.	2.b;\	.	2.ryy	.	4e;\	Do-	2.ryy	.
.	.	.	.	.	.	.	.	4e\	.	.	.
!LO:TX:a:t=P:problem:kreska taktowa pojedyncza	!	!LO:TX:a:t=P:problem:kreska taktowa pojedyncza	!	!	!	!	!	!LO:N:vis=8	!	!	!
4BB/	.	4B/	.	.	.	.	.	4e\	-mi-	.	.
=55	=55	=55	=55	=55	=55	=55	=55	=55	=55	=55	=55
!LO:TX:a:t=Da capo	!	!LO:TX:a:t=Dacapo	!	!LO:TX:a:t=Da capo	!	!	!	!	!	!	!
2.ryy	.	2.ryy	.	2.ryy	.	2.ryy	.	4e\	-ni	2.ryy	.
.	.	.	.	.	.	.	.	4r	.	.	.
.	.	.	.	.	.	.	.	4r	.	.	.
=56	=56	=56	=56	=56	=56	=56	=56	=56	=56	=56	=56
!	!	!	!	!	!	!	!	!LO:N:vis=00	!	!	!
2.ryy	.	2.ryy	.	2.ryy	.	2.ryy	.	0.r	.	2.ryy	.
=57	=57	=57	=57	=57	=57	=57	=57	=57	=57	=57	=57
2.ryy	.	2.ryy	.	2.ryy	.	2.ryy	.	.	.	2.ryy	.
=58	=58	=58	=58	=58	=58	=58	=58	=58	=58	=58	=58
2.ryy	.	2.ryy	.	2.ryy	.	2.ryy	.	.	.	2.ryy	.
=59	=59	=59	=59	=59	=59	=59	=59	=59	=59	=59	=59
2.ryy	.	2.ryy	.	2.ryy	.	2.ryy	.	.	.	2.ryy	.
=60	=60	=60	=60	=60	=60	=60	=60	=60	=60	=60	=60
!	!	!	!	!	!	!	!	!LO:N:vis=00	!	!	!
2.ryy	.	2.ryy	.	2.ryy	.	2.ryy	.	0.r	.	2.ryy	.
=61	=61	=61	=61	=61	=61	=61	=61	=61	=61	=61	=61
2.ryy	.	2.ryy	.	2.ryy	.	2.ryy	.	.	.	2.ryy	.
=62	=62	=62	=62	=62	=62	=62	=62	=62	=62	=62	=62
2.ryy	.	2.ryy	.	2.ryy	.	2.ryy	.	.	.	2.ryy	.
=63	=63	=63	=63	=63	=63	=63	=63	=63	=63	=63	=63
2.ryy	.	2.ryy	.	2.ryy	.	2.ryy	.	.	.	2.ryy	.
=64	=64	=64	=64	=64	=64	=64	=64	=64	=64	=64	=64
!	!	!	!	!	!	!	!	!LO:N:vis=00	!	!	!
2.ryy	.	2.ryy	.	2.ryy	.	2.ryy	.	0.r	.	2.ryy	.
=65	=65	=65	=65	=65	=65	=65	=65	=65	=65	=65	=65
2.ryy	.	2.ryy	.	2.ryy	.	2.ryy	.	.	.	2.ryy	.
=66	=66	=66	=66	=66	=66	=66	=66	=66	=66	=66	=66
2.ryy	.	2.ryy	.	2.ryy	.	2.ryy	.	.	.	2.ryy	.
=67	=67	=67	=67	=67	=67	=67	=67	=67	=67	=67	=67
!	!	!	!	!	!	!LO:TX:b:t=Seg(ue).	!	!	!	!	!
2.ryy	.	2.ryy	.	2.ryy	.	2.ryy	.	.	.	2.ryy	.
!	!	!	!	!	!	!LO:PB:g=original	!	!LO:LB:g=original	!	!LO:PB:g=original	!
=68||	=68||	=68||	=68||	=68||	=68||	=68||	=68||	=68||	=68||	=68||	=68||
*k[f#]	*	*k[f#]	*	*k[f#]	*	*k[f#]	*	*k[f#]	*	*k[f#]	*
*M3/8	*	*M3/8	*	*M3/8	*	*M3/8	*	*M3/8	*	*M3/8	*
!LO:TX:a:t=P:problem:Osanna zgodnie z Pleni [zawartość ukryta zgodnie z zaleceniem J.I.]	!	!LO:TX:a:t=P:problem:Osanna zgodnie z Pleni [zawartość ukryta zgodnie z zaleceniem J.I.]	!	!LO:TX:a:t=P:problem:Osanna zgodnie z Pleni [zawartość ukryta zgodnie z zaleceniem J.I.]	!	!	!	!	!	!	!
!LO:TX:a:t=P:problem:partia nie zawiera informacji o Osanna	!	!LO:TX:a:t=P:problem:partia nie zawiera informacji o Osanna	!	!LO:TX:a:t=P:problem:partia nie zawiera informacji o Osanna	!	!	!	!	!	!	!
!LO:TX:a:B:t=Allo	!	!LO:TX:a:B:t=Allo	!	!LO:TX:a:B:t=allo	!	!LO:TX:a:B:t=allo	!	!LO:TX:a:B:t=allo	!	!	!
4.GG/yy	.	8B/Lyy	.	8g/Lyy	.	8G\	O-	8B\	O-	8g\	O-
.	.	8d/yy	.	8b/yy	.	8G\	-ſan-	8d\	-ſan-	8b\	-ſan-
.	.	8c/Jyy	.	8a/Jyy	.	8G\	-na	8c\	-na	8a\	-na
=69	=69	=69	=69	=69	=69	=69	=69	=69	=69	=69	=69
4.GG/yy	.	8B/Lyy	.	8g/Lyy	.	8G\	in	(8B\L	in	(8g\L	in
.	.	8g/yy	.	8b/yy	.	8G\	.	8G\J)	.	8b\J)	.
.	.	8b/Jyy	.	8dd/Jyy	.	8G\	ex-	8B\	ex-	8dd\	ex-
=70	=70	=70	=70	=70	=70	=70	=70	=70	=70	=70	=70
.	.	8qqb/yy	.	8qqdd/yy	.	.	.	.	.	8qqdd/	.
4.D\yy	.	8a/Lyy	.	8cc\Lyy	.	4.D\	-cel-	(8A\L	-cel-	8cc\L	-cel-
.	.	16g/Lyy	.	(16b\Lyy	.	.	.	16G\L	.	(16b\L	.
!	!	!LO:TX:a:t=P:problem:niejednoznaczny zapis łuku	!	!	!	!	!	!	!	!	!
.	.	(16c/yy	.	16a\)yy	.	.	.	16c\	.	16a\)	.
.	.	16B/)yy	.	(16g\yy	.	.	.	16B\	.	(16g\	.
.	.	16A/JJyy	.	16f#\JJ)yy	.	.	.	16A\JJ)	.	16f#\JJ)	.
=71	=71	=71	=71	=71	=71	=71	=71	=71	=71	=71	=71
!LO:TX:a:t=P:problem:mixed beam	!	!	!	!	!	!	!	!	!	!	!
.	.	8qqA/yy	.	8qqf#/yy	.	.	.	.	.	8qqf#/	.
8G\Lyy	.	4.B/yy	.	4.g/yy	.	4.G\	-siſ	4.B\	-sis	4.g\	-sis
8D\yy	.	.	.	.	.	.	.	.	.	.	.
8GG/Jyy	.	.	.	.	.	.	.	.	.	.	.
=72	=72	=72	=72	=72	=72	=72	=72	=72	=72	=72	=72
4.GG/yy	.	8B/Lyy	.	8g/Lyy	.	8G\	o-	8B\	o-	8g\	o-
.	.	8d/yy	.	8b/yy	.	8G\	-ſan-	8d\	-ſan-	8b\	-ſan-
.	.	8c/Jyy	.	8a/Jyy	.	8G\	-na	8c\	-na	8a\	-na
=73	=73	=73	=73	=73	=73	=73	=73	=73	=73	=73	=73
4.GG/yy	.	8B/Lyy	.	8g/Lyy	.	4G\	in	(8B\L	in	(8g\L	in
.	.	8g/yy	.	8b/yy	.	.	.	8G\J)	.	8b\J)	.
.	.	8b/Jyy	.	8dd/Jyy	.	8G\	ex-	8A\	ex-	8dd\	ex-
=74	=74	=74	=74	=74	=74	=74	=74	=74	=74	=74	=74
.	.	8qqb/yy	.	8qqdd/yy	.	.	.	.	.	8qqdd/	.
!	!	!	!	!	!	!	!	!LO:TX:a:t=P:problem:pofalowany łuk	!	!	!
4.D\yy	.	8a/Lyy	.	8cc\Lyy	.	4.D\	-cel-	(8A\L	-cel-	8cc\L	-cel-
!	!	!LO:TX:a:t=P:problem:niejednoznaczny zapis łuku	!	!	!	!	!	!	!	!	!
.	.	(16g/Lyy	.	(16b\Lyy	.	.	.	16G\L	.	(16b\L	.
.	.	16c/)yy	.	16a\)yy	.	.	.	16c\	.	16a\)	.
.	.	16B/yy	.	(16g\yy	.	.	.	16B\	.	(16g\	.
!	!	!	!	!LO:TX:a:t=P:problem:brak kreski taktowej	!	!	!	!	!	!	!
.	.	16A/JJyy	.	16f#\JJ)yy	.	.	.	16A\JJ)	.	16f#\JJ)	.
=75	=75	=75	=75	=75	=75	=75	=75	=75	=75	=75	=75
!LO:TX:a:t=P:problem:mixed beam	!	!	!	!	!	!	!	!	!	!	!
.	.	.	.	.	.	.	.	.	.	8qqf#/	.
8G\Lyy	.	4B/yy	.	4g/yy	.	4G\	-siſ	4B\	-siſ	4g\	-sis
8D\yy	.	.	.	.	.	.	.	.	.	.	.
!LO:TX:a:t=vi-	!	!	!	!	!	!	!	!	!	!	!
8GG/Jyy	.	8cc\yy	.	8ee\yy	.	8G\	o-	8c\	o-	8ee\	o-
=76	=76	=76	=76	=76	=76	=76	=76	=76	=76	=76	=76
!LO:TX:a:t=-de	!	!	!	!	!	!	!	!	!	!	!
4.GG/yy	.	8cc\Lyy	.	(8ee\Lyy	.	8G\	-ſan-	8c\	-ſan-	8ee\	-ſan-
.	.	8b\yy	.	8dd\J)yy	.	8G\	-na	8B\	-na	8dd\	-na
.	.	8b\Jyy	.	(16gg\LLyy	.	8G\	o-	8B\	o-	8dd\	o-
.	.	.	.	16dd\JJ)yy	.	.	.	.	.	.	.
!	!	!	!	!	!	!	!	!LO:LB:g=original	!	!	!
=77	=77	=77	=77	=77	=77	=77	=77	=77	=77	=77	=77
!LO:TX:a:t=P:problem:mixed beam	!	!LO:TX:a:t=P:problem:niejednoznaczny zapis łuku	!	!	!	!	!	!	!	!	!
.	.	8qqb/yy	.	8qqdd/yy	.	.	.	.	.	8qqdd/	.
8D\Lyy	.	(8a/Lyy	.	8cc\Lyy	.	8D\	-ſan-	8A\	-ſan-	8cc\	-ſan-
8G\yy	.	8g/)yy	.	8b\Jyy	.	8G\	-na	8G\	-na	8b\	-na
!	!	!LO:TX:a:t=P:problem:niejednoznaczny zapis artykulacji [przyjęto staccatissimo]:global	!	!	!	!	!	!	!	!	!
8GG/Jyy	.	8cc`/Jyy	.	8ee\yy	.	8G\	in	8c\	in	8ee\	in
!	!	!	!	!LO:LB:g=original	!	!LO:LB:g=original	!	!	!	!	!
=78	=78	=78	=78	=78	=78	=78	=78	=78	=78	=78	=78
4.GG/yy	.	8cc\Lyy	.	(8ee\Lyy	.	4.G\	ex-	(8c\	ex-	(8ee\	ex-
.	.	[8b\yy	.	8dd\J)yy	.	.	.	4B\)	.	4dd\)	.
.	.	8b\J]yy	.	(16gg\LLyy	.	.	.	.	.	.	.
.	.	.	.	16dd\JJ)yy	.	.	.	.	.	.	.
!	!	!	!	!	!	!	!	!	!	!LO:LB:g=original	!
=79	=79	=79	=79	=79	=79	=79	=79	=79	=79	=79	=79
.	.	8qqb/yy	.	8qqdd/yy	.	.	.	.	.	8qqdd/	.
8D\Lyy	.	8a\Lyy	.	8cc\Lyy	.	8D\	-cel-	8B\	-cel-	8cc\	-cel-
8G\yy	.	8g\Jyy	.	8b\yy	.	8G\	-siſ	8G\	-siſ	8b\	-siſ
8A\Jyy	.	8cc#X\yy	.	8ee\Jyy	.	8A\	o-	8c#X\	o-	8dd\	o-
!LO:LB:g=original	!	!	!	!	!	!	!	!	!	!	!
=80	=80	=80	=80	=80	=80	=80	=80	=80	=80	=80	=80
!LO:TX:a:t=P:problem:powrót po vide, wcześniej skreślone takty	!	!	!	!	!	!	!	!LO:TX:a:t=P:problem:niejednoznaczny zapis łuków w tt. 80-82	!	!LO:TX:a:t=P:problem: plama tuszu pod belką	!
4D\yy	.	8dd\Lyy	.	8ff#\Lyy	.	4d\	-ſan-	(8d\L	-ſan-	(8ff#\L	-ſan-
.	.	8ee\yy	.	8gg\yy	.	.	.	8e\J)	.	8gg\J)	.
8A\yy	.	8cc#X\Jyy	.	8ee\Jyy	.	8A\	-na	8c#X\	-na	8ee\	-na
!	!	!LO:LB:g=original	!	!	!	!	!	!	!	!	!
=81	=81	=81	=81	=81	=81	=81	=81	=81	=81	=81	=81
4d\yy	.	8dd\Lyy	.	8ff#\Lyy	.	8D\L	in	(8d\L	in	(8ff#\L	in
.	.	8ee\yy	.	8gg\yy	.	8G\J	.	8e\J)	.	8gg\J)	.
8A\yy	.	8cc#X\Jyy	.	8ee\Jyy	.	8A\	ex-	8c#X\	ex-	8ee\	ex-
=82	=82	=82	=82	=82	=82	=82	=82	=82	=82	=82	=82
!LO:TX:a:t=P:problem:mixed beam	!	!	!	!	!	!LO:TX:a:t=P:problem:mixed beam	!	!	!	!	!
8D\Lyy	.	8dd\Lyy	.	8ff#\Lyy	.	8D\L	-cel-	8d\L	-cel-	8ff#\L	-cel-
!	!	!	!	!	!	!	!	!LO:TX:a:t=P:problem:podwójne łuki	!	!	!
8A\yy	.	(16b\Lyy	.	16gg\Lyy	.	8A\	.	(16B\L	.	(16gg\L	.
.	.	16g\JJ)yy	.	16ee\yy	.	.	.	16G\)	.	16ee\)	.
8AA/Jyy	.	(16f#/LLyy	.	16dd\yy	.	8AA/J	.	(16F#\	.	(16dd\	.
.	.	16e/JJ)yy	.	16cc#X\JJyy	.	.	.	16E\JJ)	.	16cc#X\JJ)	.
=83	=83	=83	=83	=83	=83	=83	=83	=83	=83	=83	=83
!	!	!	!	!LO:SIC:s=8qcc#	!	!	!	!	!	!LO:SIC:s=8qcc#	!
.	.	8qqe/yy	.	8qqcc/yy	.	.	.	8qqE/	.	8qqcc/	.
8D\Lyy	.	4f#/yy	.	4dd\yy	.	4D\	-siſ	4F#/	-siſ	4dd\	-siſ
8F#\yy	.	.	.	.	.	.	.	.	.	.	.
8A\Jyy	.	8cc#X\yy	.	8ee\yy	.	8A\	o-	8c#X\	o-	8ee\	o-
=84	=84	=84	=84	=84	=84	=84	=84	=84	=84	=84	=84
!	!	!	!	!	!	!	!	!LO:TX:a:t=P:problem:pofalowany łuk	!	!LO:TX:a:t=P:problem:pofalowany łuk	!
4D\yy	.	8dd\Lyy	.	8ff#\Lyy	.	4d\	-ſan-	(8d\L	-ſan-	(8ff#\L	-ſan-
.	.	8ee\yy	.	8gg\yy	.	.	.	8e\J)	.	8gg\J)	.
8A\yy	.	8cc#X\Jyy	.	8ee\Jyy	.	8A\	-na	8c#X\	-na	8ee\	-na
!	!	!	!	!	!	!	!	!LO:LB:g=original	!	!	!
=85	=85	=85	=85	=85	=85	=85	=85	=85	=85	=85	=85
!	!	!	!	!	!	!	!	!LO:TX:a:t=P:problem:niejednoznaczny zapis łuku	!	!	!
4d\yy	.	8dd\Lyy	.	8ff#\Lyy	.	4D\	in	(8d\L	in	(8ff#\L	in
.	.	8ee\yy	.	8gg\yy	.	.	.	8e\J)	.	8gg\J)	.
8A\yy	.	8cc#X\Jyy	.	8ee\Jyy	.	8A\	ex-	8c#X\	ex-	8ee\	ex-
=86	=86	=86	=86	=86	=86	=86	=86	=86	=86	=86	=86
!LO:TX:a:t=P:problem:mixed beam	!	!	!	!	!	!LO:TX:a:t=P:problem:mixed beam	!	!LO:TX:a:t=P:problem:niejednoznaczny zapis łuku	!	!	!
8D\Lyy	.	8dd\Lyy	.	8ff#\Lyy	.	8D\L	-cel-	(8d\L	-cel-	8ff#\L	-cel-
8A\yy	.	(16b\Lyy	.	16gg\Lyy	.	8A\	.	16B\L	.	(16gg\L	.
.	.	16g\JJ)yy	.	16ee\yy	.	.	.	16G\	.	16ee\)	.
8AA/Jyy	.	(16f#/LLyy	.	16dd\yy	.	8AA/J	.	16F#\	.	(16dd\	.
.	.	16e/JJ)yy	.	16cc#X\JJyy	.	.	.	16E\JJ)	.	16cc#X\JJ)	.
=87	=87	=87	=87	=87	=87	=87	=87	=87	=87	=87	=87
[4.D\yy	.	4f#/yy	.	4dd\yy	.	4.D\	-siſ	4.F#/	-sis	4.dd\	-sis
.	.	(16cc#X\LLyy	.	(16ee\LLyy	.	.	.	.	.	.	.
.	.	16dd\JJ)yy	.	16ff#\JJ)yy	.	.	.	.	.	.	.
=88	=88	=88	=88	=88	=88	=88	=88	=88	=88	=88	=88
4.D\_yy	.	4f#/yy	.	4dd\yy	.	4.D\	in	4.F#/	in	4.dd\	in
.	.	(16dd\LLyy	.	(16ff#\LLyy	.	.	.	.	.	.	.
.	.	16ff#\JJ)yy	.	16aa\JJ)yy	.	.	.	.	.	.	.
!	!	!	!	!	!	!LO:LB:g=original	!	!	!	!	!
=89	=89	=89	=89	=89	=89	=89	=89	=89	=89	=89	=89
4.D\_yy	.	4f#/yy	.	4dd\yy	.	4.D\	ex-	4F#/	ex-	4dd\	ex-
!	!	!	!	!	!	!	!	!LO:TX:a:t=P:problem:podwójne łuki	!	!	!
.	.	(16cc#X\LLyy	.	(16ee\LLyy	.	.	.	(16G/LL	.	16ee\LL	.
.	.	16dd\JJ)yy	.	16ff#\JJ)yy	.	.	.	16A/JJ)	.	16ff#\JJ	.
=90	=90	=90	=90	=90	=90	=90	=90	=90	=90	=90	=90
!	!	!	!	!	!	!	!	!	!	!LO:LB:g=original	!
4.D\]yy	.	4f#/yy	.	4dd\yy	.	4.D\	-cel-	4.F#/	-cel-	4.dd\	-cel-
.	.	16dd\LLyy	.	(16ff#\LLyy	.	.	.	.	.	.	.
.	.	16ff#\JJyy	.	16aa\JJ)yy	.	.	.	.	.	.	.
=91	=91	=91	=91	=91	=91	=91	=91	=91	=91	=91	=91
!LO:TX:a:t=P:problem:mixed beam	!	!	!	!	!	!	!	!	!	!	!
8D/Lyy	.	4f#/yy	.	4dd\yy	.	4D\	-siſ	4F#/	-siſ	4dd\	-ſis
16d\Lyy	.	.	.	.	.	.	.	.	.	.	.
16cn\yy	.	.	.	.	.	.	.	.	.	.	.
16B\yy	.	8ryy	.	8ryy	.	8r	.	8r	.	8r	.
16A\JJyy	.	.	.	.	.	.	.	.	.	.	.
=92	=92	=92	=92	=92	=92	=92	=92	=92	=92	=92	=92
4.G\yy	.	8B/Lyy	.	8g/Lyy	.	8G\	o-	8B\	o-	8g\	o-
.	.	8d/yy	.	8b/yy	.	8G\	-ſan-	8d\	-ſan-	8b\	-ſan-
.	.	8c/Jyy	.	8a/Jyy	.	8G\	-na	8cn\	-na	8a\	-na
!	!	!	!	!LO:LB:g=original	!	!	!	!	!	!	!
=93	=93	=93	=93	=93	=93	=93	=93	=93	=93	=93	=93
4.G\yy	.	8B/Lyy	.	8g/Lyy	.	4G\	in	(8B\L	in	(8g\L	in
.	.	8g/yy	.	8b/yy	.	.	.	8G\J)	.	8b\J)	.
.	.	8b/Jyy	.	8dd/Jyy	.	8G\	ex-	8B\	ex-	8dd\	ex-
=94	=94	=94	=94	=94	=94	=94	=94	=94	=94	=94	=94
!	!	!	!	!	!	!	!	!LO:TX:a:t=P:problem:podwójne łuki	!	!	!
.	.	8qqb/yy	.	8qqdd/yy	.	.	.	.	.	8qqdd/	.
4.D\yy	.	8a/Lyy	.	8cc\Lyy	.	4.D\	-cel-	(8A\L	-cel-	8cc\L	-cel-
!	!	!LO:TX:a:t=P:problem:niejednoznaczny zapis łuku	!	!	!	!	!	!	!	!	!
.	.	(16g/Lyy	.	(16b\Lyy	.	.	.	16G\L	.	(16b\L	.
.	.	16cn/)yy	.	16a\)yy	.	.	.	16c\	.	16a\)	.
.	.	16B/yy	.	(16g\yy	.	.	.	16B\	.	(16g\	.
.	.	16A/JJyy	.	16f#\JJ)yy	.	.	.	16A\JJ)	.	16f#\JJ)	.
!	!	!LO:LB:g=original	!	!	!	!	!	!	!	!	!
=95	=95	=95	=95	=95	=95	=95	=95	=95	=95	=95	=95
!LO:TX:a:t=P:problem:mixed beam	!	!	!	!	!	!	!	!	!	!	!
.	.	8qqA/yy	.	8qqf#/yy	.	.	.	8qqA/	.	8qqf#/	.
8G\Lyy	.	4.B/yy	.	4.g/yy	.	4.G\	-siſ	4.B\	-siſ	4.g\	-ſis
8D\yy	.	.	.	.	.	.	.	.	.	.	.
8GG/Jyy	.	.	.	.	.	.	.	.	.	.	.
!	!	!	!	!	!	!	!	!LO:LB:g=original	!	!	!
=96	=96	=96	=96	=96	=96	=96	=96	=96	=96	=96	=96
4.GG/yy	.	8B/Lyy	.	8g/Lyy	.	8G\	o-	8B\	o-	8g\	o-
.	.	8d/yy	.	8b/yy	.	8G\	-ſan-	8d\	-ſan-	8b\	-ſan-
.	.	8c/Jyy	.	8a/Jyy	.	8G\	-na	8c\	-na	8a\	-na
=97	=97	=97	=97	=97	=97	=97	=97	=97	=97	=97	=97
4.GG/yy	.	8B/Lyy	.	8g/Lyy	.	4G\	in	(8B\L	in	8g\L	in
.	.	8g/yy	.	8b/yy	.	.	.	8G\J)	.	8b\J	.
.	.	8b/Jyy	.	8dd/Jyy	.	8G\	ex-	8B\	ex-	8dd\	ex-
!LO:LB:g=original	!	!	!	!	!	!	!	!	!	!	!
=98	=98	=98	=98	=98	=98	=98	=98	=98	=98	=98	=98
.	.	8qqb/yy	.	8qqdd/yy	.	.	.	.	.	8qqdd/	.
4.D\yy	.	8a/Lyy	.	16cc\LLyy	.	4.D\	-cel-	(8A\L	-cel-	8cc\L	-cel-
.	.	.	.	16cc\yy	.	.	.	.	.	.	.
!	!	!LO:TX:a:t=P:problem:niejednoznaczny zapis łuku	!	!	!	!	!	!	!	!	!
.	.	(16g/Lyy	.	(16b\yy	.	.	.	16G\L	.	(16b\L	.
.	.	16c/)yy	.	16a\)yy	.	.	.	16c\	.	16a\	.
.	.	16B/yy	.	(16g\yy	.	.	.	16B\	.	16g\	.
!	!	!LO:SIC:s=16A	!	!	!	!	!	!	!	!	!
.	.	16F#/JJyy	.	16f#\JJ)yy	.	.	.	16A\JJ)	.	16f#\JJ)	.
=99	=99	=99	=99	=99	=99	=99	=99	=99	=99	=99	=99
!LO:TX:a:t=P:problem:mixed beam	!	!	!	!	!	!	!	!	!	!	!
.	.	8qqA/yy	.	8qqf#/yy	.	.	.	.	.	8qqf#/	.
8G\Lyy	.	4B/yy	.	4g/yy	.	4G\	-siſ	4B\	-siſ	4g\	-ſis
8GG/yy	.	.	.	.	.	.	.	.	.	.	.
8G\Jyy	.	8cc\yy	.	8ee\yy	.	8G\	o-	8c\	o-	8ee\	o-
=100	=100	=100	=100	=100	=100	=100	=100	=100	=100	=100	=100
4.G\yy	.	8cc\Lyy	.	(8ee\Lyy	.	8G\	-ſan-	8c\	-ſan-	8ee\	-ſan-
.	.	8b\Jyy	.	8dd\J)yy	.	8G\	-na	8B\	-na	8dd\	-na
.	.	8b\yy	.	16gg\LLyy	.	8G\	o-	8B\	o-	8dd\	o-
.	.	.	.	16dd\JJyy	.	.	.	.	.	.	.
!	!	!	!	!	!	!LO:LB:g=original	!	!	!	!	!
=101	=101	=101	=101	=101	=101	=101	=101	=101	=101	=101	=101
!LO:TX:a:t=P:problem:mixed beam	!	!	!	!	!	!	!	!	!	!	!
.	.	8qqb/yy	.	8qqdd/yy	.	.	.	8qqB/	.	8qqdd/	.
8D\Lyy	.	8a/Lyy	.	8cc/Lyy	.	8D\	-ſan-	8A\	-ſan-	8cc\	-ſan-
!	!	!LO:TX:a:t=P:problem:niejednoznaczny zapis łuku	!	!	!	!	!	!	!	!	!
8G\yy	.	(8g/yy	.	8b/yy	.	8G\	-na	8G/	-na	8b\	-na
8GG/Jyy	.	8a/J)yy	.	8ee/Jyy	.	8G\	in	8c\	in	8ee\	in
!	!	!	!	!	!	!	!	!	!	!LO:LB:g=original	!
=102	=102	=102	=102	=102	=102	=102	=102	=102	=102	=102	=102
4.GG/yy	.	8cc/Lyy	.	(8ee\Lyy	.	4.G\	ex-	(8c\	ex-	8ee\	ex-
.	.	8b/yy	.	8dd\J)yy	.	.	.	4B\)	.	4dd\	.
.	.	8b/Jyy	.	16gg\LLyy	.	.	.	.	.	.	.
.	.	.	.	16dd\JJyy	.	.	.	.	.	.	.
=103	=103	=103	=103	=103	=103	=103	=103	=103	=103	=103	=103
.	.	8qqb/yy	.	8qqdd/yy	.	.	.	8qqB/	.	8qqdd/	.
8D\Lyy	.	(8a/Lyy	.	8cc\Lyy	.	8D\	-cel-	8A\	-cel-	8cc\	-cel-
8G\yy	.	8g/)yy	.	8b\yy	.	8G\	-siſ	8G\	-siſ	8b\	-siſ
8D\Jyy	.	8f#`/Jyy	.	8a\Jyy	.	8D\	o-	8F#/	o-	8a\	o-
=104	=104	=104	=104	=104	=104	=104	=104	=104	=104	=104	=104
!	!	!	!	!	!	!	!	!LO:TX:a:t=P:problem:łuki pod tekstem w tt. 104-105	!	!	!
4GG/yy	.	8g/Lyy	.	8b\Lyy	.	4G\	-ſan-	(<8G/L	-ſan-	(8b\L	-ſan-
.	.	8a/yy	.	8cc\yy	.	.	.	8A/J)	.	8cc\J)	.
8D\yy	.	8f#/Jyy	.	8a\Jyy	.	8D\	-na	8F#/	-na	8a\	-na
=105	=105	=105	=105	=105	=105	=105	=105	=105	=105	=105	=105
!	!	!LO:TX:a:t=P:problem:niejednoznaczny zapis łuku	!	!	!	!	!	!	!	!	!
4G\yy	.	(8g/Lyy	.	8b\Lyy	.	4G\	in	(<8G/L	in	(8b\L	in
.	.	8a/)yy	.	8cc\yy	.	.	.	8A/J)	.	8cc\J)	.
8D\yy	.	8f#`/Jyy	.	8a\Jyy	.	8D\	ex-	8F#/	ex-	8a\	ex-
!	!	!	!	!	!	!	!	!LO:LB:g=original	!	!	!
=106	=106	=106	=106	=106	=106	=106	=106	=106	=106	=106	=106
8GG/Lyy	.	8g/Lyy	.	8b\Lyy	.	8G\L	-cel-	(8G\L	-cel-	8b\L	-cel-
!	!	!LO:TX:a:t=P:problem:niejednoznaczny zapis łuku	!	!	!	!	!	!	!	!	!
8C/yy	.	(16e/Lyy	.	16cc\Lyy	.	8C\	.	16A\L	.	(16cc\L	.
.	.	16c/)yy	.	16a\yy	.	.	.	16c\	.	16a\	.
8D/Jyy	.	16B/yy	.	16g\yy	.	8D\J	.	16B\	.	16g\	.
.	.	16A/JJyy	.	16f#\JJyy	.	.	.	16A\JJ)	.	16f#\JJ)	.
!	!	!	!	!LO:LB:g=original	!	!	!	!	!	!	!
=107	=107	=107	=107	=107	=107	=107	=107	=107	=107	=107	=107
.	.	.	.	8qqf#/yy	.	.	.	.	.	8qqf#/	.
8GG/Lyy	.	4B/yy	.	4g/yy	.	4GG/	-siſ	4B\	-siſ	4g\	-siſ
8BB/yy	.	.	.	.	.	.	.	.	.	.	.
8D/Jyy	.	8f#/yy	.	8a/yy	.	8D\	o-	8F#/	o-	8a\	o-
=108	=108	=108	=108	=108	=108	=108	=108	=108	=108	=108	=108
!	!	!	!	!	!	!	!	!LO:TX:a:t=P:problem:łuki pod tekstem w tt. 108-109	!	!	!
4GG/yy	.	8g/Lyy	.	8b\Lyy	.	4G\	-ſan-	(8G/L	-ſan-	(8b\L	-ſan-
.	.	8a/yy	.	8cc\yy	.	.	.	8A/J)	.	8cc\J)	.
!	!	!	!	!LO:SIC:s=8a	!	!	!	!	!	!	!
8D/yy	.	8f#/Jyy	.	8b\Jyy	.	8D\	-na	8F#/	-na	8a\	-na
!	!	!LO:LB:g=original	!	!	!	!	!	!	!	!	!
=109	=109	=109	=109	=109	=109	=109	=109	=109	=109	=109	=109
4G\yy	.	8g/Lyy	.	8b\Lyy	.	4G\	in	(8G/L	in	(8b\L	in
.	.	8a/yy	.	8cc\yy	.	.	.	8A/J)	.	8cc\J)	.
8D\yy	.	8f#/Jyy	.	8a\Jyy	.	8D\	ex-	8F#/	ex-	8a\	ex-
=110	=110	=110	=110	=110	=110	=110	=110	=110	=110	=110	=110
8GG/Lyy	.	8g/Lyy	.	8b\Lyy	.	8G\L	-cel-	8G\L	-cel-	8b\L	-cel-
!	!	!	!	!	!	!	!	!LO:TX:a:t=P:problem:podwójne łuki	!	!	!
!	!	!LO:TX:a:t=P:problem:niejednoznaczny zapis łuku	!	!	!	!	!	!LO:TX:a:t=P:problem:niejednoznaczny zapis łuku	!	!	!
8C/yy	.	(16e/Lyy	.	(16cc\Lyy	.	8C\	.	(16A\L	.	(16cc\L	.
.	.	16c/)yy	.	16a\)yy	.	.	.	16c\	.	16a\	.
8D/Jyy	.	16B/yy	.	(16g\yy	.	8D\J	.	16B\	.	16g\	.
.	.	16A/JJyy	.	16f#\JJ)yy	.	.	.	16A\JJ)	.	16f#\JJ)	.
=111	=111	=111	=111	=111	=111	=111	=111	=111	=111	=111	=111
4.GG/yy	.	4B/yy	.	4g/yy	.	4GG/	-siſ	4B\	-siſ	4g\	-siſ
.	.	(16f#/LLyy	.	(16a/LLyy	.	8G\	in	8D/	in	(16a\LL	in
.	.	16g/JJ)yy	.	16b/JJ)yy	.	.	.	.	.	16b\JJ)	.
!	!	!	!	!	!	!LO:LB:g=original	!	!	!	!	!
=112	=112	=112	=112	=112	=112	=112	=112	=112	=112	=112	=112
4.GG/yy	.	4B/yy	.	4g/yy	.	4.G\	ex-	4.D/	ex-	4g\	ex-
.	.	16g/LLyy	.	(16b/LLyy	.	.	.	.	.	(16b\LL	.
.	.	16b/JJyy	.	16dd/JJ)yy	.	.	.	.	.	16dd\JJ)	.
!LO:LB:g=original	!	!	!	!	!	!	!	!	!	!LO:LB:g=original	!
=113	=113	=113	=113	=113	=113	=113	=113	=113	=113	=113	=113
4.GG/yy	.	4B/yy	.	4g/yy	.	4.G\	-cel-	4.D/	-cel-	4g\	-cel-
.	.	16f#/LLyy	.	(16a/LLyy	.	.	.	.	.	(16a\LL	.
.	.	16g/JJyy	.	16b/JJ)yy	.	.	.	.	.	16b\JJ)	.
=114	=114	=114	=114	=114	=114	=114	=114	=114	=114	=114	=114
4.GG/yy	.	4B/yy	.	4g/yy	.	4.G\	.	4.D/	.	4g\	.
.	.	16g/LLyy	.	(16b/LLyy	.	.	.	.	.	(16b\LL	.
.	.	16b/JJyy	.	16dd/JJ)yy	.	.	.	.	.	16dd\JJ)	.
=115	=115	=115	=115	=115	=115	=115	=115	=115	=115	=115	=115
!LO:TX:a:t=P:problem:łuk nad i pod kreską taktową [przyjęto fermatę]	!	!	!	!	!	!	!	!	!	!	!
!LO:TX:a:t=P:problem:kreska taktowa początek/koniec repetycji	!	!	!	!	!	!	!	!	!	!	!
4.GG/yy	.	4B/yy	.	4g/yy	.	4G\	-siſ	4D/	-siſ	4g\	-ſis
!	!	!LO:TX:a:t=P:problem:łuk nad i pod kreską taktową [przyjęto fermatę]	!	!LO:TX:a:t=P:problem:łuk nad kreską taktową [przyjęto fermatę]	!	!LO:TX:a:t=P:problem:fermata nad kreską taktową	!	!LO:TX:a:t=P:problem:łuk nad kreską taktową [przyjęto fermatę]	!	!	!
!	!	!LO:TX:a:t=P:problem:kreska taktowa początek/koniec repetycji	!	!LO:TX:a:t=P:problem:kreska taktowa początek/koniec repetycji	!	!LO:TX:a:t=P:problem:kreska taktowa podwójna	!	!LO:TX:a:t=P:problem:kreska taktowa początek/koniec repetycji	!	!	!
.	.	8ryy	.	8ryy	.	8r	.	8r	.	8r	.
==;;	==	==;;	==	==;	==	==;	==	==;	==	==	==
*-	*-	*-	*-	*-	*-	*-	*-	*-	*-	*-	*-
!!!system-decoration: [(g1)][(g2)]g3
!!!RDF**kern: >= above
!!!RDF**kern: <= below
!!!RDF**dynam: p=pia
!!!RDF**kern:f=for
!!!ENC:Anna Matuszewska
!!!END:2020-10-11
!!!ENC: Andrzej Kubiczek
!!!END: 2020-05-18
